X:48
T:Roast Beef of Old England
O:No 48 Wm Clarke MS  Feltwell, Norfolk
N:Time sig given as C but it is triple time
N:Left as in MS
I:abc2nwc
M:4/4
L:1/8
K:D
B2|d e2d c2|d2e f2d|f2e2Ad|e2d2cBA|B2G2BA|
A2|d e2d c2|d2e f2d|f2e2Ad|e2d2cBA|B2G2BA:|
|:A2B G2B2d2|cB A2F2|GB efg|f a2g f2|A2F2GAB|
cA c2d2|A2B G2B2d2|cB A2F2|GB efg|f a2g d2|A2F2GAB|cA c2d2|]

